X:1
T:Providence (Leach), SM
T:Providence (Leach), SM
T:Leach, 1849
T:Public Domain Courtesy of the Cyber Hymnal™
C:Leach, 1849
Z:Public Domain
Z:Courtesy of the Cyber Hymnal™
%%score 1 2 3 4
L:1/8
Q:1/4=170
M:2/2
K:Bb
V:1 treble 
V:2 treble 
V:3 treble 
V:4 bass 
V:1
 G4 | G4 B4 | (A2 G2) ^F4 | !fermata!G4 F4 | B4 d4 | B4 A4 | !fermata!B4 G4 | F4 G4 | A4 A4 | %9
 (B2 A2) G4 | !fermata!^F4 F4 | B4 A4 | G4 ^F4 | !fermata!G4 |] %14
V:2
 D4 | D4 D4 | E4 D4 | !fermata!D4 D4 | D4 D4 | D4 F4 | !fermata!F4 D4 | D4 D4 | F4 C4 | D4 D4 | %10
 !fermata!D4 D4 | D4 E4 | D4 D4 | !fermata!D4 |] %14
V:3
 G4 | B4 d4 | (c2 B2) A4 | !fermata!G4 B4 | d4 f4 | B4 c4 | !fermata!d4 d4 | f4 d4 | c4 e4 | %9
 (d2 c2) B4 | !fermata!A4 B4 | d4 (cdec) | B4 A4 | !fermata!G4 |] %14
V:4
 G,4 | G,4 B,,4 | C,4 D,4 | !fermata!G,,4 B,,4 | B,,4 D,4 | G,4 F,4 | B,,4 B,4 | A,4 B,4 | %8
 F,4 ^F,4 | G,4 G,,4 | !fermata!D,4 D,4 | B,,4 C,4 | D,4 D,4 | !fermata!G,,4 |] %14

